X: 18
T:Pistache
M:4/4
L:1/8
R:Schottische
D:Les Barayauds : Jusqu'au Petit Matin
Z:Steve Mansfield
K:C
c2cG c2cG | cBcd e2de | fedc BABc |1 dcdf edcB:|2 dccB c4 ||
|: edcB G3B | A3c cBcd | edce d2cB | AGAB c4 :|
<end>
<start>
